website/assets/images/halite-time.svg

<svg width="16" height="16" viewBox="0 0 16 16" xmlns="http://www.w3.org/2000/svg"><title>time-3</title><path d="M8 0C3.6 0 0 3.6 0 8s3.6 8 8 8 8-3.6 8-8-3.6-8-8-8zm4 9H7V4h2v3h3v2z" fill-rule="nonzero" fill="#AFBEBD"/></svg>

<?xml version="1.0" encoding="UTF-8"?>
<svg width="16px" height="16px" viewBox="0 0 16 16" version="1.1" xmlns="http://www.w3.org/2000/svg" xmlns:xlink="http://www.w3.org/1999/xlink">
    <!-- Generator: Sketch 46.1 (44463) - http://www.bohemiancoding.com/sketch -->
    <title>time-3</title>
    <desc>Created with Sketch.</desc>
    <defs></defs>
    <g id="Hackathon" stroke="none" stroke-width="1" fill="none" fill-rule="evenodd">
        <g id="04_Hackathon-Portal-Beta-Ready" transform="translate(-69.000000, -578.000000)" fill-rule="nonzero" fill="#AFBEBD">
            <g id="4" transform="translate(47.000000, 142.000000)">
                <g id="Group-2" transform="translate(0.000000, 151.000000)">
                    <g id="1">
                        <g id="Group" transform="translate(0.000000, 206.000000)">
                            <g id="time-3" transform="translate(22.000000, 79.000000)">
                                <path d="M8,0 C3.6,0 0,3.6 0,8 C0,12.4 3.6,16 8,16 C12.4,16 16,12.4 16,8 C16,3.6 12.4,0 8,0 Z M12,9 L7,9 L7,4 L9,4 L9,7 L12,7 L12,9 Z" id="Shape"></path>
                            </g>
                        </g>
                    </g>
                </g>
            </g>
        </g>
    </g>
</svg>
